Obsidian-SemiLight/actions/22s/labplot-workbook-new.svg

<svg viewBox="0 0 22 22" xmlns="http://www.w3.org/2000/svg"><path d="m4 3v1 1h-1v3h1v6h-1v3h1v2h1 1v-1h-1v-14h13v2h1v-2-1zm9 4a6 2 0 0 0 -6 2v8a6 2 0 0 0 6 2 6 2 0 0 0 1-.029297v-.992187a5 1 0 0 1 -1 .021484 5 1 0 0 1 -5-1v-2.898438a6 2 0 0 0 5 .898438 6 2 0 0 0 1-.03125v-.990234a5 1 0 0 1 -1 .021484 5 1 0 0 1 -5-1v-2.898438a6 2 0 0 0 5 .898438 6 2 0 0 0 5-.896484v2.896484h1v-4a6 2 0 0 0 -6-2zm0 1a5 1 0 0 1 5 1 5 1 0 0 1 -5 1 5 1 0 0 1 -5-1 5 1 0 0 1 5-1zm4 6v2h-2v1h2v2h1v-2h2v-1h-2v-2z" fill="#4d4d4d"/></svg>

<svg xmlns="http://www.w3.org/2000/svg" viewBox="0 0 22 22">
  <defs id="defs3051">
    <style type="text/css" id="current-color-scheme">
      .ColorScheme-Text {
        color:#4d4d4d;
      }
      </style>
  </defs>
 <path 
     style="fill:currentColor;fill-opacity:1;stroke:none" 
     d="M 4 3 L 4 4 L 4 5 L 3 5 L 3 8 L 4 8 L 4 14 L 3 14 L 3 17 L 4 17 L 4 19 L 5 19 L 6 19 L 6 18 L 5 18 L 5 4 L 18 4 L 18 6 L 19 6 L 19 4 L 19 3 L 4 3 z M 13 7 A 6 2 0 0 0 7 9 L 7 17 A 6 2 0 0 0 13 19 A 6 2 0 0 0 14 18.970703 L 14 17.978516 A 5 1 0 0 1 13 18 A 5 1 0 0 1 8 17 L 8 14.101562 A 6 2 0 0 0 13 15 A 6 2 0 0 0 14 14.96875 L 14 13.978516 A 5 1 0 0 1 13 14 A 5 1 0 0 1 8 13 L 8 10.101562 A 6 2 0 0 0 13 11 A 6 2 0 0 0 18 10.103516 L 18 13 L 19 13 L 19 9 A 6 2 0 0 0 13 7 z M 13 8 A 5 1 0 0 1 18 9 A 5 1 0 0 1 13 10 A 5 1 0 0 1 8 9 A 5 1 0 0 1 13 8 z M 17 14 L 17 16 L 15 16 L 15 17 L 17 17 L 17 19 L 18 19 L 18 17 L 20 17 L 20 16 L 18 16 L 18 14 L 17 14 z "
	 class="ColorScheme-Text"
     />
</svg>
